src/assets/icons/chart-pie.svg

<svg width="14" height="14" viewBox="0 0 14 14" fill="none" xmlns="http://www.w3.org/2000/svg">
<g id="chart-pie">
<g clip-path="url(#clip0_156_4528)">
<path id="Vector" d="M8.06061 0.880748V0.636364C8.06061 0.285091 7.77552 0 7.42424 0C3.3303 0 0 3.3303 0 7.42424C0 8.76315 0.333456 10.0469 0.96388 11.1372L0.964735 11.1364C1.08267 11.34 1.29563 11.4545 1.51539 11.4545C1.62315 11.4545 1.73175 11.4274 1.83188 11.3697L2.07539 11.2297C3.30145 12.9479 5.29285 14 7.42424 14C11.0498 14 14 11.0498 14 7.42424C14 4.01333 11.3892 1.20232 8.06061 0.880748ZM6.78788 1.30582V7.05515L1.78691 9.92728C1.45431 9.1628 1.27273 8.31178 1.27273 7.42341C1.27273 4.24669 3.69345 1.6257 6.78788 1.30582ZM7.42424 12.7273C5.74679 12.7273 4.1737 11.9221 3.18012 10.5959L7.74158 7.97661C7.93928 7.86291 8.06061 7.65249 8.06061 7.4251V2.16365C10.685 2.47929 12.7273 4.71673 12.7273 7.4251C12.7273 10.3481 10.3481 12.7273 7.42424 12.7273Z" fill="black"/>
</g>
</g>
<defs>
<clipPath id="clip0_156_4528">
<rect width="14" height="14" fill="white"/>
</clipPath>
</defs>
</svg>

<svg xmlns="http://www.w3.org/2000/svg" fill="none" viewBox="0 0 14 14"><g clip-path="url(#a)"><path fill="#000" d="M8.06.88V.637A.637.637 0 0 0 7.425 0C3.33 0 0 3.33 0 7.424c0 1.34.333 2.623.964 3.713a.636.636 0 0 0 .868.233l.243-.14A6.6 6.6 0 0 0 7.425 14 6.584 6.584 0 0 0 14 7.424c0-3.41-2.61-6.222-5.94-6.543m-1.272.426v5.75L1.787 9.926a6.3 6.3 0 0 1-.514-2.504 6.16 6.16 0 0 1 5.515-6.117m.636 11.421a5.32 5.32 0 0 1-4.244-2.131l4.562-2.62a.64.64 0 0 0 .319-.55V2.163a5.31 5.31 0 0 1 4.666 5.261 5.31 5.31 0 0 1-5.303 5.302"/></g><defs><clipPath id="a"><path fill="#fff" d="M0 0h14v14H0z"/></clipPath></defs></svg>
